ubuntu-mono-dark/stock/128/stock_person-panel.svg

<?xml version="1.0" encoding="UTF-8" standalone="no"?>
<!-- Created with Inkscape (http://www.inkscape.org/) -->

<svg
   xmlns:dc="http://purl.org/dc/elements/1.1/"
   xmlns:cc="http://creativecommons.org/ns#"
   xmlns:rdf="http://www.w3.org/1999/02/22-rdf-syntax-ns#"
   xmlns:svg="http://www.w3.org/2000/svg"
   xmlns="http://www.w3.org/2000/svg"
   xmlns:sodipodi="http://sodipodi.sourceforge.net/DTD/sodipodi-0.dtd"
   xmlns:inkscape="http://www.inkscape.org/namespaces/inkscape"
   version="1.0"
   width="128"
   height="128"
   id="svg3178"
   inkscape:version="0.48.0 r9654"
   sodipodi:docname="stock_person-panel.svg">
  <metadata
     id="metadata9">
    <rdf:RDF>
      <cc:Work
         rdf:about="">
        <dc:format>image/svg+xml</dc:format>
        <dc:type
           rdf:resource="http://purl.org/dc/dcmitype/StillImage" />
      </cc:Work>
    </rdf:RDF>
  </metadata>
  <sodipodi:namedview
     pagecolor="#ffffff"
     bordercolor="#666666"
     borderopacity="1"
     objecttolerance="10"
     gridtolerance="10"
     guidetolerance="10"
     inkscape:pageopacity="0"
     inkscape:pageshadow="2"
     inkscape:window-width="1280"
     inkscape:window-height="753"
     id="namedview7"
     showgrid="false"
     inkscape:zoom="2.2734375"
     inkscape:cx="-2.8591065"
     inkscape:cy="68.618557"
     inkscape:window-x="0"
     inkscape:window-y="24"
     inkscape:window-maximized="1"
     inkscape:current-layer="svg3178" />
  <defs
     id="defs3180" />
  <path
     inkscape:connector-curvature="0"
     style="fill:#000000;fill-opacity:1;fill-rule:nonzero;stroke:none;stroke-width:1.00178742000000010;marker:none;visibility:visible;display:inline;overflow:visible;enable-background:accumulate;opacity:0.3"
     id="rect2382-5"
     d="M 4.9375,2 C 2.756125,2 1,3.7553997 1,5.9358739 L 1,119 9.4287109,115.27937 C 30.276789,106.08033 44.958495,95.517363 44.958496,89.696189 c 0,-4.073557 -4.13476,-11.594848 -8.76709,-15.927989 -2.974112,-2.782036 -4.175846,-5.626739 -4.891113,-11.684625 -0.546978,-4.632548 -0.656343,-9.202257 0.492187,-9.439948 1.958257,-0.405269 1.446314,-6.718711 1.445801,-13.160579 -8.27e-4,-10.267221 0.45918,-12.396913 3.845215,-17.280946 2.124124,-3.063849 4.485718,-5.565571 5.229492,-5.565571 0.743774,0 0.953734,-0.648951 0.461426,-1.445203 -0.512229,-0.828473 0.05942,-1.080623 1.353516,-0.584232 1.357276,0.520616 2.660539,-0.115585 3.22998,-1.598949 0.673352,-1.753991 1.235222,-1.974089 1.999512,-0.737976 0.79884,1.292008 2.091196,1.105376 4.952637,-0.768726 1.940688,-1.271064 4.646069,-1.9332674 7.782714,-2.0601835 11.202303,-0.4532721 27.69499,5.7381155 32.607422,13.6833115 2.370001,3.833163 2.983888,7.323296 2.983887,16.481471 0,6.38905 -0.08794,12.528164 1.445801,13.037583 1.113077,0.369693 1.039147,4.8074 0.492187,9.439948 -0.715286,6.057886 -1.917002,8.902587 -4.891113,11.684625 -4.627685,4.328794 -8.767087,11.833524 -8.76709,15.89724 0,5.67644 15.545333,17.10154 33.345703,24.50696 L 127,117.3703 127,5.9358739 C 127,3.7553997 125.24388,2 123.0625,2 L 4.9375,2 z" />
  <path
     inkscape:connector-curvature="0"
     style="fill:#dfdbd2;fill-opacity:1;fill-rule:nonzero;stroke:none;stroke-width:1.00178742000000010;marker:none;visibility:visible;display:inline;overflow:visible;enable-background:accumulate"
     id="rect2382"
     d="M 4.9375,1 C 2.756125,1 1,2.7553997 1,4.9358739 L 1,118 9.4287109,114.27937 C 30.276789,105.08033 44.958495,94.517363 44.958496,88.696189 c 0,-4.073557 -4.13476,-11.594848 -8.76709,-15.927989 -2.974112,-2.782036 -4.175846,-5.626739 -4.891113,-11.684625 -0.546978,-4.632548 -0.656343,-9.202257 0.492187,-9.439948 1.958257,-0.405269 1.446314,-6.718711 1.445801,-13.160579 -8.27e-4,-10.267221 0.45918,-12.396913 3.845215,-17.280946 2.124124,-3.063849 4.485718,-5.565571 5.229492,-5.565571 0.743774,0 0.953734,-0.648951 0.461426,-1.445203 -0.512229,-0.828473 0.05942,-1.080623 1.353516,-0.584232 1.357276,0.520616 2.660539,-0.115585 3.22998,-1.598949 0.673352,-1.753991 1.235222,-1.974089 1.999512,-0.737976 0.79884,1.292008 2.091196,1.105376 4.952637,-0.768726 1.940688,-1.271064 4.646069,-1.9332674 7.782714,-2.0601835 11.202303,-0.4532721 27.69499,5.7381155 32.607422,13.6833115 2.370001,3.833163 2.983888,7.323296 2.983887,16.481471 0,6.38905 -0.08794,12.528164 1.445801,13.037583 1.113077,0.369693 1.039147,4.8074 0.492187,9.439948 -0.715286,6.057886 -1.917002,8.902587 -4.891113,11.684625 -4.627685,4.328794 -8.767087,11.833524 -8.76709,15.89724 0,5.67644 15.545333,17.10154 33.345703,24.50696 L 127,116.3703 127,4.9358739 C 127,2.7553997 125.24388,1 123.0625,1 L 4.9375,1 z" />
</svg>

<?xml version="1.0" encoding="UTF-8" standalone="no"?>
<!-- Created with Inkscape (http://www.inkscape.org/) -->
<svg
   xmlns:svg="http://www.w3.org/2000/svg"
   xmlns="http://www.w3.org/2000/svg"
   version="1.0"
   width="128"
   height="128"
   id="svg3178">
  <defs
     id="defs3180" />
  <g
     id="layer1">
    <path
       d="M 4.9375,0.5 C 2.49076,0.5 0.5,2.4916873 0.5,4.9375 L 0.5,118 C 0.50568365,118.16276 0.59118853,118.31228 0.72858968,118.39972 C 0.86599083,118.48715 1.0376481,118.50129 1.1875,118.4375 L 9.625,114.71875 C 20.073815,110.1083 28.994902,105.17529 35.3125,100.625 C 38.471299,98.349853 40.978088,96.185134 42.71875,94.1875 C 44.459412,92.189866 45.46875,90.350545 45.46875,88.6875 C 45.46875,86.482946 44.389681,83.56185 42.75,80.59375 C 41.110319,77.62565 38.897534,74.619703 36.53125,72.40625 C 33.632147,69.694375 32.522425,67.043891 31.8125,61.03125 C 31.540682,58.729132 31.365272,56.458266 31.40625,54.75 C 31.426739,53.895867 31.502136,53.185662 31.625,52.71875 C 31.686432,52.485294 31.754273,52.305457 31.8125,52.21875 C 31.870727,52.132043 31.886139,52.122695 31.875,52.125 C 32.246988,52.048016 32.584878,51.825177 32.8125,51.53125 C 33.040122,51.237323 33.186478,50.881664 33.3125,50.46875 C 33.564545,49.642922 33.687812,48.583248 33.75,47.34375 C 33.874377,44.864755 33.750256,41.677193 33.75,38.46875 C 33.749587,33.3425 33.853246,30.260318 34.375,27.90625 C 34.896754,25.552182 35.820197,23.891706 37.5,21.46875 C 38.549264,19.955284 39.669801,18.577698 40.59375,17.59375 C 41.055724,17.101776 41.454027,16.695242 41.78125,16.4375 C 42.108473,16.179758 42.403251,16.125 42.3125,16.125 C 42.826407,16.125 43.31586,15.83827 43.46875,15.375 C 43.62164,14.91173 43.481961,14.413756 43.1875,13.9375 C 43.161294,13.895115 43.171941,13.908485 43.15625,13.875 C 43.255227,13.882373 43.454087,13.877072 43.9375,14.0625 C 44.727425,14.365495 45.560096,14.340266 46.25,14 C 46.939904,13.659734 47.491365,13.024039 47.8125,12.1875 C 47.973721,11.767542 48.121198,11.448976 48.25,11.25 C 48.378802,11.051024 48.470633,10.999324 48.46875,11 C 48.466867,11.000676 48.414424,10.967294 48.5,11.03125 C 48.585576,11.095206 48.763832,11.25037 48.9375,11.53125 C 49.171931,11.910408 49.461031,12.223268 49.84375,12.40625 C 50.226469,12.589232 50.660692,12.635018 51.125,12.5625 C 52.053616,12.417464 53.14086,11.857821 54.59375,10.90625 C 56.424479,9.7072041 59.046518,9.0620627 62.125,8.9375 C 67.625489,8.7149371 74.486914,10.132072 80.5625,12.59375 C 86.638086,15.055428 91.924802,18.563764 94.28125,22.375 C 96.601547,26.127773 97.187501,29.458239 97.1875,38.59375 C 97.1875,41.785793 97.173785,44.938616 97.34375,47.375 C 97.428732,48.593192 97.558408,49.62948 97.78125,50.4375 C 98.004092,51.24552 98.300919,51.903185 98.96875,52.125 C 98.965114,52.123792 99.155927,52.272528 99.28125,52.75 C 99.406573,53.227472 99.473548,53.935466 99.5,54.78125 C 99.552905,56.472818 99.396599,58.730911 99.125,61.03125 C 98.415253,67.042227 97.275362,69.693198 94.375,72.40625 C 92.010879,74.617676 89.819941,77.631598 88.1875,80.59375 C 86.555059,83.555902 85.468752,86.45729 85.46875,88.65625 C 85.46875,90.30089 86.541125,92.127623 88.3125,94.15625 C 90.083875,96.184877 92.612037,98.392727 95.6875,100.65625 C 101.83843,105.1833 110.18852,109.93844 119.125,113.65625 L 126.8125,116.84375 C 126.96744,116.90966 127.14527,116.89216 127.28438,116.79731 C 127.4235,116.70245 127.50476,116.54331 127.5,116.375 L 127.5,4.9375 C 127.5,2.491688 125.50924,0.5 123.0625,0.5 L 4.9375,0.5 z"
       id="path3176"
       style="opacity:0.6;fill:none;fill-opacity:1;fill-rule:evenodd;stroke:#3a3935;stroke-width:0.99999994;stroke-linecap:round;stroke-linejoin:round;marker:none;marker-start:none;marker-mid:none;marker-end:none;stroke-miterlimit:4;stroke-dasharray:none;stroke-dashoffset:0;stroke-opacity:1;visibility:visible;display:inline;overflow:visible;enable-background:accumulate" />
    <path
       d="M 4.9375,1 C 2.756125,1 1,2.7553997 1,4.9358739 L 1,118 L 9.4287109,114.27937 C 30.276789,105.08033 44.958495,94.517363 44.958496,88.696189 C 44.958496,84.622632 40.823736,77.101341 36.191406,72.7682 C 33.217294,69.986164 32.01556,67.141461 31.300293,61.083575 C 30.753315,56.451027 30.64395,51.881318 31.79248,51.643627 C 33.750737,51.238358 33.238794,44.924916 33.238281,38.483048 C 33.237454,28.215827 33.697461,26.086135 37.083496,21.202102 C 39.20762,18.138253 41.569214,15.636531 42.312988,15.636531 C 43.056762,15.636531 43.266722,14.98758 42.774414,14.191328 C 42.262185,13.362855 42.833831,13.110705 44.12793,13.607096 C 45.485206,14.127712 46.788469,13.491511 47.35791,12.008147 C 48.031262,10.254156 48.593132,10.034058 49.357422,11.270171 C 50.156262,12.562179 51.448618,12.375547 54.310059,10.501445 C 56.250747,9.230381 58.956128,8.5681776 62.092773,8.4412615 C 73.295076,7.9879894 89.787763,14.179377 94.700195,22.124573 C 97.070196,25.957736 97.684083,29.447869 97.684082,38.606044 C 97.684082,44.995094 97.596145,51.134208 99.129883,51.643627 C 100.24296,52.01332 100.16903,56.451027 99.62207,61.083575 C 98.906784,67.141461 97.705068,69.986162 94.730957,72.7682 C 90.103272,77.096994 85.96387,84.601724 85.963867,88.66544 C 85.963867,94.34188 101.5092,105.76698 119.30957,113.1724 L 127,116.3703 L 127,4.9358739 C 127,2.7553997 125.24388,1 123.0625,1 L 4.9375,1 z"
       id="rect2382"
       style="opacity:1;fill:#eae3d0;fill-opacity:1;fill-rule:nonzero;stroke:none;stroke-width:1.00178742;stroke-linecap:butt;stroke-linejoin:miter;marker:none;marker-start:none;marker-mid:none;marker-end:none;stroke-miterlimit:4;stroke-dasharray:none;stroke-dashoffset:0;stroke-opacity:1;visibility:visible;display:inline;overflow:visible;enable-background:accumulate" />
  </g>
</svg>
